img/icons/arrow.svg

<svg xmlns="http://www.w3.org/2000/svg" viewBox="0 0 595.3 841.9">
  <path d="M-207.6 399.6l-60.3-60.3c-3.9-3.9-10.2-3.9-14.1 0-3.9 3.9-3.9 10.2 0 14.1l57.8 57.8H-441c-5.5 0-10 4.5-10 10s4.5 10 10 10h216.8L-282 489c-3.9 3.9-3.9 10.2 0 14.1 2 2 4.5 2.9 7.1 2.9s5.1-1 7.1-2.9l60.3-60.3c5.8-5.8 9-13.5 9-21.7s-3.3-15.7-9.1-21.5z"/>
</svg>

<svg width="253px" height="170px" viewBox="-451 336 253 170" version="1.1" xmlns="http://www.w3.org/2000/svg" xmlns:xlink="http://www.w3.org/1999/xlink">
  <path d="M-207.6,399.6 L-267.9,339.3 C-271.8,335.4 -278.1,335.4 -282,339.3 C-285.9,343.2 -285.9,349.5 -282,353.4 L-224.2,411.2 L-441,411.2 C-446.5,411.2 -451,415.7 -451,421.2 C-451,426.7 -446.5,431.2 -441,431.2 L-224.2,431.2 L-282,489 C-285.9,492.9 -285.9,499.2 -282,503.1 C-280,505.1 -277.5,506 -274.9,506 C-272.3,506 -269.8,505 -267.8,503.1 L-207.5,442.8 C-201.7,437 -198.5,429.3 -198.5,421.1 C-198.5,412.9 -201.8,405.4 -207.6,399.6 L-207.6,399.6 Z" id="Shape" stroke="none" fill="#000000" fill-rule="evenodd"></path>
</svg>
